X: 8261
T: Coriolis
R: reel
M: 4/4
K: Dmajor
|:Ac|d2A2 G2A2-|A6 Ac|d2A2 G2A2-|A4 E2D2|d2A2 G2A2-|
AAGF G3d|1 dfe2- e4|-e6:|2 dfe2- e4|-e6 dc||
|:B3d dfe2-|eedc d2cA|G3d dfe2-|eedc dcB<A|
B3d dfe2-|eedc d2e/f/a|G3G- GGB/A/G|Acd2 d2f/e/d:|
|:e3e- eedc|dad'd c'2ad|eae2- e2dc|dAA/B/d gfed|
e3e- eedc|dad'd c'2ad|G3G- GGB/A/G|Acd2 d2f/e/d:|

